X:1
T:The Carrion Crow
M:4/4
L:1/4
K:D
 D/2| G G F F| E E D2| D/2E/2 F/2G/2 A F| A2 D| D| d d c c| B B A2|\
 G G3/4 G/4 F F| E E D| D| G2 F3/2 F/2| E/2E/2 E D2| D/2E/2 F/2G/2 A F|\
 A2 D3/2||
